picto/aeroplane-left.svg

<svg class="color-immutable" width="24" height="24" viewBox="0 0 24 24" fill="none" xmlns="http://www.w3.org/2000/svg"><g clip-path="url(#a)"><path d="M0 22.5v-21C0 .675.675 0 1.5 0h21c.825 0 1.5.675 1.5 1.5v21c0 .825-.675 1.5-1.5 1.5h-21C.675 24 0 23.325 0 22.5Z" fill="#2D327D"/><path d="m19.875 9-1.313 2.055-4.688-.18L15 3h-1.845l-2.635 7.875H4.125a1.125 1.125 0 0 0 0 2.25h6.395L13.155 21H15l-1.125-7.875 4.688-.18L19.875 15H21l-.75-3L21 9h-1.125Z" fill="#fff"/></g><defs><clipPath id="a"><path fill="#fff" d="M0 0h24v24H0z"/></clipPath></defs></svg>

<svg class="color-immutable" width="24" height="24" viewBox="0 0 24 24" fill="none" xmlns="http://www.w3.org/2000/svg"><path d="M0 22.5V1.5C0 0.675 0.675 0 1.5 0H22.5C23.325 0 24 0.675 24 1.5V22.5C24 23.325 23.325 24 22.5 24H1.5C0.675 24 0 23.325 0 22.5Z" fill="#2D327D"/><path d="M19.875 9L18.562 11.055L13.874 10.875L15 3H13.155L10.52 10.875H4.125C3.504 10.875 3 11.379 3 12C3 12.621 3.504 13.125 4.125 13.125H10.52L13.155 21H15L13.875 13.125L18.563 12.945L19.875 15H21L20.25 12L21 9H19.875Z" fill="white"/></svg>
